icon/lg/whalar-icon.svg

<?xml version="1.0" encoding="UTF-8"?>
<svg viewBox="0 0 256 243" version="1.1" xmlns="http://www.w3.org/2000/svg" preserveAspectRatio="xMidYMid" height="1em" width="1em">
  <g>
    <path d="M255.998,115.176 L255.998141,179.183041 C255.964934,179.804383 253.994639,210.871513 192.001213,210.871513 C129.380897,210.871513 128.003119,241.190959 128.003119,242.569431 C128.003119,241.105021 126.624647,210.871513 64.0050939,210.871513 C2.56443984,210.871513 0.0515990558,183.455984 0.000860551222,179.617809 L0.000441528944,179.403405 C0.00200303632,179.25284 0.00717127832,179.173595 0.00717127832,179.173595 L0.00717127832,179.173595 L0.00717127832,115.176194 C0.00717127832,115.176194 2.84954839,146.873419 64.0050939,146.873419 C125.160931,146.873419 128.003119,175.729148 128.003119,178.571336 C128.003119,176.418038 128.692008,146.873419 192.001213,146.873419 C254.078692,146.873419 255.941016,116.400672 255.996886,115.20167 L255.998,115.176 Z M256,-1.56319402e-13 L256,63.9978862 C256,63.9978862 256,95.696012 192.001906,95.696012 C128.643793,95.696012 128.010212,125.327194 128.003876,127.340733 L128.00168,127.276314 C127.924204,124.814808 125.373632,95.696012 64.0059949,95.696012 C2.48521875,95.696012 0.041260392,68.280303 0.000558025493,64.4421037 L0.000702782834,64.2276976 C0.00266262288,64.0771315 0.00804618161,63.9978862 0.00804618161,63.9978862 L0.00855809266,0.0375297604 C0.0336429432,1.25521834 1.28794471,31.6974327 64.0059949,31.6974327 C126.723855,31.6974327 127.978213,60.0720848 128.0033,63.2338038 L128.003812,63.3954199 L128.003812,63.3954199 C128.003812,60.5530238 128.692701,31.6974327 192.001906,31.6974327 C255.310418,31.6974327 256,-1.56319402e-13 256,-1.56319402e-13 Z" fill="#22CACE"/>
  </g>
</svg>

<svg width="256" height="243" xmlns="http://www.w3.org/2000/svg" preserveAspectRatio="xMidYMid"><path d="M255.998 115.176v64.007c-.033.621-2.003 31.689-63.997 31.689-62.62 0-63.998 30.319-63.998 31.697 0-1.464-1.378-31.697-63.998-31.697-61.44 0-63.953-27.416-64.004-31.254v-.215c.001-.15.006-.23.006-.23v-63.997s2.843 31.697 63.998 31.697c61.156 0 63.998 28.856 63.998 31.698 0-2.153.689-31.698 63.998-31.698 62.078 0 63.94-30.472 63.996-31.671l.001-.026ZM256 0v63.998s0 31.698-63.998 31.698c-63.358 0-63.992 29.631-63.998 31.645l-.002-.065c-.078-2.461-2.628-31.58-63.996-31.58C2.486 95.696.041 68.28.001 64.442v-.214c.002-.15.007-.23.007-.23V.038c.026 1.217 1.28 31.66 63.998 31.66 62.718 0 63.972 28.374 63.997 31.536v.161c0-2.842.69-31.698 63.999-31.698C255.31 31.697 256 0 256 0Z" fill="#22CACE"/></svg>
